!!!OTL: SCHAUTS IHR LIEBEN LEUTEL
!!!ARE: Europa, Mitteleuropa, Deutschland, Franken, Schweinfurt
!!!SCT: E1004
!!!YEM: Copyright 1995, estate of Helmut Schaffrath.
**kern
*ICvox
*Ivox
*M3/4
*k[f#]
*G:
=1
{4.dd
8cc
8b
8a
=2
4g
4g
4g
=3
4ee
4ee
4ee
=4
2dd
4r}
=5
{4cc
4cc
4cc
=6
2b
4ee
=7
4dd
4cc
8a
8f#
=8
2g
4r}
=9
{8a
8f#
8d
8d
4d
=10
4b
4g
4g}
=11
{8a
8f#
4d
4d
=12
4b
4g
4g
=13
2r}
{8b
8a
=14
4g
4g
8b
8dd
=15
2.ee}
=16
{4.dd
8ee
4dd
=17
4cc
4b
4f#
=18
2g
4r}
==
!!!AGN: Tanz - Lied, Landsknechts - Tanz
!!!ONB: ESAC (Essen Associative Code) Database: ERK3
!!!AMT: simple triple
!!!AIN: vox
!!!EED: Helmut Schaffrath
!!!EEV: 1.0
*-
